frontend/src/components/icons/OCSL_mobile_logo.svg

<svg width="102" height="47" viewBox="0 0 102 47" fill="none" xmlns="http://www.w3.org/2000/svg">
<g clip-path="url(#clip0_669_444)">
<path d="M7.77339 6.64353V0H13.4948V4.10749L18.9713 1.17706L37.6993 10.9176L36.2081 13.3742L35.256 12.9492L35.2653 19.0975H38.9717L40.2534 21.2773V42.0319H36.9105V43.2716L36.0294 43.345V47.0015H0V40.4818H3.822L3.83124 13.7487L18.7926 6.15589L26.0176 9.84606L26.1886 19.0929H33.9266V12.2629L18.6833 4.48966L1.37105 13.1632L0 10.725L7.77339 6.64353ZM15.9073 14.8142H12.8216V18.2154H15.9073V14.8142ZM20.25 14.8142H17.1643V18.2154H20.25V14.8142ZM15.9073 19.2595H12.8216V22.3214H15.9073V19.2595ZM20.25 19.2595H17.1643V22.3214H20.25V19.2595ZM15.9073 28.3581H12.8216V31.7593H15.9073V28.3581ZM20.25 28.3734H17.1643V31.7746H20.25V28.3734ZM15.9073 33.074H12.8216V36.4752H15.9073V33.074ZM20.1267 33.074H17.0411V36.4752H20.1267V33.074ZM15.9073 37.773H12.8216V41.1743H15.9073V37.773ZM20.1267 37.773H17.0411V41.1743H20.1267V37.773ZM27.4688 20.218H26.5244V23.2355H27.4688V20.218ZM29.6686 20.218H28.7243V23.2355H29.6686V20.218ZM31.8685 20.218H30.9241V23.2355H31.8685V20.218ZM34.0683 20.218H33.124V23.2355H34.0683V20.218ZM36.2681 20.218H35.3238V23.2355H36.2681V20.218ZM38.4695 20.218H37.5252V23.2355H38.4695V20.218ZM29.1957 29.8944H26.9958V36.2306H29.1957V29.8944ZM36.4253 29.8944H34.2254V36.2306H36.4253V29.8944ZM32.9792 29.9051H30.2971V36.2413H32.9792V29.9051Z" fill="white"/>
<path d="M41.9633 20.6338C41.9633 20.6338 40.7741 19.2672 40.7741 18.8896C40.7741 18.5121 45.3494 10.534 53.9685 10.6502C62.5861 10.7664 67.4202 17.6422 67.4202 17.6422C67.4202 17.6422 68.4108 19.2351 66.8379 20.6338L66.7208 42.2001C66.7208 42.2001 67.012 43.4719 70.0976 43.5285V44.8569H71.5534V46.8441H37.3711V44.5404H38.5573L38.5819 43.4689C38.5819 43.4689 41.9649 43.4689 41.9649 41.9448C41.9649 40.4207 41.9633 20.6338 41.9633 20.6338ZM45.4433 41.5519C45.4433 41.5519 45.619 42.9415 46.8652 42.8971C48.1115 42.8543 48.2871 41.422 48.2871 41.422V21.0236H45.4449V41.5519H45.4433ZM51.781 41.9861C52.7469 41.9494 52.8686 40.7861 52.8902 40.2801C52.9271 39.4133 52.8902 36.8085 52.8902 36.8085L52.4003 36.1955L56.5473 36.1802L56.0251 36.9186C56.0251 36.9186 56.0297 38.8172 56.0297 40.2938C56.0297 41.7705 57.0788 41.9861 57.0788 41.9861V21.0236H52.0059L51.7825 41.9861H51.781ZM60.5711 41.1942C60.5711 41.1942 60.7467 42.5838 61.993 42.5394C63.2393 42.4951 63.4149 41.0643 63.4149 41.0643V20.6659H60.5727V41.1942H60.5711Z" fill="white"/>
<path d="M68.93 17.6055C68.93 17.6055 69.4769 20.1843 68.1536 21.022V22.6867L83.1643 9.3049L99.8156 23.4985L102 21.0205L83.1103 4.91614L76.7773 10.9299L76.7234 8.60019H71.8646L71.8924 15.0022L68.9331 17.6055H68.93Z" fill="white"/>
<path d="M74.8379 45.6517V46.844H82.123V45.6517H81.231L81.2094 35.3944H75.4618L75.5065 45.6456L74.8379 45.6517Z" fill="white"/>
<path d="M68.1519 24.8024L83.0455 11.4618L96.9994 23.4999V40.5032H100.285V46.844H83.2551L83.2458 44.9026H82.1798V34.358L74.639 34.3931V44.9454L73.6253 44.9561V46.844H72.7257L72.6641 42.9444L71.6335 42.9398L71.6443 41.723L68.3183 41.6955L68.1504 24.8024H68.1519ZM88.9257 34.3977H85.0759V40.8563H88.9257V34.3977ZM95.0507 34.3977H91.201V40.8563H95.0507V34.3977ZM85.3162 18.3637H81.4665V24.8222H85.3162V18.3637Z" fill="white"/>
</g>
<defs>
<clipPath id="clip0_669_444">
<rect width="102" height="47" fill="white"/>
</clipPath>
</defs>
</svg>

<svg xmlns="http://www.w3.org/2000/svg" width="102" height="47" fill="none" viewBox="0 0 102 47"><g fill="#fff" clip-path="url(#a)"><path d="M7.773 6.644V0h5.722v4.107l5.476-2.93 18.728 9.74-1.49 2.457-.953-.425.01 6.149h3.706l1.281 2.18v20.754H36.91v1.24l-.88.073v3.657H0v-6.52h3.822l.01-26.733 14.96-7.593 7.226 3.69.17 9.247h7.739v-6.83L18.683 4.49 1.371 13.163 0 10.725zm8.134 8.17h-3.085v3.401h3.085zm4.343 0h-3.086v3.401h3.086zm-4.343 4.445h-3.085v3.062h3.085zm4.343 0h-3.086v3.062h3.086zm-4.343 9.1h-3.085v3.4h3.085zm4.343.014h-3.086v3.402h3.086zm-4.343 4.701h-3.085v3.401h3.085zm4.22 0H17.04v3.401h3.086zm-4.22 4.699h-3.085v3.401h3.085zm4.22 0H17.04v3.401h3.086zm7.342-17.555h-.945v3.017h.945zm2.2 0h-.945v3.017h.945zm2.2 0h-.945v3.017h.945zm2.2 0h-.945v3.017h.944zm2.2 0h-.945v3.017h.944zm2.2 0h-.944v3.017h.944zm-9.273 9.676h-2.2v6.337h2.2zm7.23 0h-2.2v6.337h2.2zm-3.447.011h-2.682v6.336h2.682z"/><path d="M41.963 20.634s-1.189-1.367-1.189-1.744c0-.378 4.575-8.356 13.194-8.24s13.452 6.992 13.452 6.992.99 1.593-.582 2.992L66.72 42.2s.291 1.272 3.377 1.328v1.329h1.455v1.987H37.371V44.54h1.186l.025-1.071s3.383 0 3.383-1.524zm3.48 20.918s.176 1.39 1.422 1.345c1.246-.043 1.422-1.475 1.422-1.475V21.024h-2.842v20.528zm6.338.434c.966-.037 1.088-1.2 1.11-1.706.036-.867 0-3.471 0-3.471l-.49-.613 4.146-.016-.522.739s.005 1.898.005 3.375 1.049 1.692 1.049 1.692V21.024h-5.073l-.224 20.962zm8.79-.792s.176 1.39 1.422 1.345 1.422-1.475 1.422-1.475V20.666h-2.842v20.528z"/><path d="M68.93 17.606s.547 2.578-.776 3.416v1.665l15.01-13.382 16.652 14.194L102 21.02 83.11 4.916l-6.333 6.014-.054-2.33h-4.858l.027 6.402-2.959 2.603zm5.908 28.046v1.192h7.285v-1.192h-.892l-.022-10.258h-5.747l.044 10.252z"/><path d="m68.152 24.802 14.894-13.34L96.999 23.5v17.003h3.286v6.341h-17.03l-.01-1.941H82.18V34.358l-7.541.035v10.552l-1.014.011v1.888h-.9l-.06-3.9-1.032-.004.011-1.217-3.326-.027-.168-16.894zm20.774 9.596h-3.85v6.458h3.85zm6.125 0H91.2v6.458h3.85zm-9.735-16.034h-3.85v6.458h3.85z"/></g><defs><clipPath id="a"><path fill="#fff" d="M0 0h102v47H0z"/></clipPath></defs></svg>
